64x64/places/folder-yellow-mail.svg

<svg xmlns="http://www.w3.org/2000/svg" width="64" height="64" version="1"><rect style="opacity:.2" width="56" height="36" x="4" y="22" rx="2.8" ry="2.8"/><path style="fill:#b58f1b" d="M4 46.2C4 47.751 5.249 49 6.8 49h50.4c1.551 0 2.8-1.249 2.8-2.8V15.8c0-1.551-1.249-2.8-2.8-2.8H32c-4.2 0-5.6-6-9.8-6H6.8A2.794 2.794 0 0 0 4 9.8"/><rect style="opacity:.2" width="56" height="36" x="4" y="20" rx="2.8" ry="2.8"/><rect style="fill:#f4f4f7" width="48" height="22" x="8" y="16" rx="2.8" ry="2.8"/><rect style="fill:#e2b322" width="56" height="36" x="4" y="21" rx="2.8" ry="2.8"/><path style="opacity:.1;fill:#f4f4f7" d="M6.8 7C5.25 7 4 8.25 4 9.8v1.001A2.795 2.795 0 0 1 6.8 8H22.2c4.2 0 5.601 6 9.801 6h25.199A2.796 2.796 0 0 1 60 16.801v-1A2.796 2.796 0 0 0 57.199 13H32c-4.2 0-5.601-6-9.801-6z"/><path style="fill:#4f3e0c" d="M32 27c-6.627 0-12 5.373-12 12s5.373 12 12 12h7.5s1.406-.601 1.5-2.101c0-1.5-1.5-1.899-1.5-1.899H32a7.98 7.98 0 0 1-1.165-.094c-1.399-.159-2.511-.598-3.351-1.304l-.012-.008A8 8 0 1 1 39.999 39c-.001.908-.185 1.49-.48 2.004-.007 0-.013-.004-.02-.004h-1.867a5.952 5.952 0 0 0 .367-2 6 6 0 1 0-6 6h7.5c1.083-.1 1.845-.743 2.539-1.152C43.563 42.76 44 41.227 44 39c0-6.627-5.373-12-12-12zm0 10a2 2 0 1 1-.001 4.001A2 2 0 0 1 32 37z"/></svg>

<svg xmlns="http://www.w3.org/2000/svg" width="64" height="64" version="1">
 <rect style="opacity:0.2" width="56" height="36" x="4" y="22" rx="2.8" ry="2.8"/>
 <path style="fill:#b58f1b" d="M 4,46.2 C 4,47.751 5.2488,49 6.8,49 H 57.2 C 58.751,49 60,47.751 60,46.2 V 15.8 C 60,14.249 58.751,13 57.2,13 H 32 C 27.8,13 26.4,7 22.2,7 H 6.8 C 5.2488,7 4,8.2488 4,9.8"/>
 <rect style="opacity:0.2" width="56" height="36" x="4" y="20" rx="2.8" ry="2.8"/>
 <rect style="fill:#f4f4f7" width="48" height="22" x="8" y="16" rx="2.8" ry="2.8"/>
 <rect style="fill:#e2b322" width="56" height="36" x="4" y="21" rx="2.8" ry="2.8"/>
 <path style="opacity:0.1;fill:#f4f4f7" d="M 6.8008,7 C 5.2496,7 4,8.2496 4,9.8008 V 10.801 C 4,9.2496 5.2496,8 6.8008,8 H 22.199 C 26.399,8 27.8,14 32,14 H 57.199 C 58.75,14 60,15.25 60,16.801 V 15.801 C 60,14.25 58.75,13 57.199,13 H 32 C 27.8,13 26.399,7 22.199,7 Z"/>
 <path style="fill:#4f3e0c" d="M 32,27 C 25.373,27 20,32.373 20,39 20,45.627 25.373,51 32,51 H 39.5 C 39.5,51 40.906,50.399 41,48.899 41,47.399 39.5,47 39.5,47 H 32 C 31.61,46.997 31.221,46.966 30.835,46.906 29.436,46.747 28.324,46.308 27.484,45.602 L 27.472,45.594 C 25.299,44.102 24,41.636 23.999,39 23.999,34.582 27.581,31 31.999,31 36.418,31 39.999,34.582 39.999,39 39.998,39.908 39.814,40.49 39.519,41.004 39.512,41.004 39.506,41 39.499,41 H 37.632 C 37.855,40.372 37.999,39.705 37.999,39 37.999,35.686 35.313,33 31.999,33 28.686,33 25.999,35.686 25.999,39 25.999,42.314 28.685,45 31.999,45 H 39.499 C 40.582,44.9 41.344,44.257 42.038,43.848 43.563,42.76 44,41.227 44,39 44,32.373 38.627,27 32,27 Z M 32,37 C 33.104,37 34,37.896 34,39 34,40.105 33.104,41 32,41 30.895,41 30,40.105 30,39 30,37.896 30.895,37 32,37 Z"/>
</svg>
